src/assets/icons/credit-card.svg

﻿<?xml version="1.0" encoding="utf-8"?>
<!DOCTYPE svg PUBLIC "-//W3C//DTD SVG 1.1//EN" "http://www.w3.org/Graphics/SVG/1.1/DTD/svg11.dtd">
<svg xmlns="http://www.w3.org/2000/svg" xmlns:xlink="http://www.w3.org/1999/xlink" version="1.1" baseProfile="full" width="24" height="24" viewBox="0 0 24.00 24.00" enable-background="new 0 0 24.00 24.00" xml:space="preserve">
	<path fill="#000000" fill-opacity="1" stroke-width="0.2" stroke-linejoin="round" d="M 19.9994,7.99805L 3.99939,7.99805L 3.99939,5.99805L 19.9994,5.99805M 19.9994,17.998L 3.99939,17.998L 3.99939,11.998L 19.9994,11.998M 19.9994,3.99805L 3.99939,3.99805C 2.89438,3.99805 2.0094,4.89203 2.0094,5.99805L 1.99939,17.998C 1.99939,19.1041 2.89438,19.998 3.99939,19.998L 19.9994,19.998C 21.1044,19.998 21.9994,19.1041 21.9994,17.998L 21.9994,5.99805C 21.9994,4.89203 21.1044,3.99805 19.9994,3.99805 Z "/>
</svg>

<svg viewBox="0 0 24 24">
<path d="M20 4h-16c-1.105 0-1.99 0.895-1.99 2l-0.010 12c0 1.105 0.895 2 2 2h16c1.105 0 2-0.895 2-2v-12c0-1.105-0.895-2-2-2zM20 18h-16v-6h16v6zM20 8h-16v-2h16v2z"></path>
</svg>
